X:071 
T:Gypsy Polka 1 & 2, The 
F:file ID: cre.5/071gypsy
B:CRE5.092 (Polca na GiofÃÂÃÂÃÂÃÂ³ige)
M:2/4
L:1/8
Q:140
R:polka
K:A
P:polka 1
a/g/|:fA fA|fA fg/f/|ed eg/e/|1 df ag:|2 ddd||
f/g/|aa d'c'|ba gf|e/f/g/e/ AB/c/|df af/g/|
a/a/a/a/ d'c'|ba gf|eg/e/ AB/c/|ddd||
P:polka 2
A|fA fA|f/e/d/e/ fa|ec ef|df ag|
fA fA|f/e/d/e/ fa|ee fe|d2d2||
ee fe|ce a2|dd dB|c2 Ac|
e2 fe|ce a2|BA/B/ cB|A2 A||

%%%

